X:1
T:Jugend-Lieder
T:Lied des Gefangenen
T:Jugend-Lieder
T:Mathilde Kralik
T:10. Lied des Gefangenen
T:Ludwig Uhland
T:Creative Commons copyright waiver (CC0 1.0 Universal)
T:Creative Commons copyright waiver (CC0 1.0 Universal)
T:Creative Commons copyright waiver (CC0 1.0 Universal)
C:Mathilde Kralik
Z:Ludwig Uhland
Z:Creative Commons copyright waiver (CC0 1.0 Universal)
%%score ( 1 2 ) { ( 3 6 ) | ( 4 5 ) }
L:1/8
Q:1/4=120
M:3/4
K:A
V:1 treble nm="Singstimme\nVoice"
V:2 treble 
V:3 treble nm="Piano"
V:6 treble 
V:4 treble 
V:5 treble 
V:1
"^Bewegt" z6 | z6 | z6 | z6 | z6 | z6 | z6 | z2 z2!mp! E2 | E3 E E2 | c4 c2 | B3 B B2 | e4 e2 | %12
w: |||||||Wie|lieb- li- cher|Klang! O|Ler- che! dein|Sang, er|
!<(! B3 B B2 | f3 f f2!<)! |!>(! f2 B2!>)! z2 | z2 z2!mp! E2 |!<(! E3 E E2 | c4 c2 | c3 c c2!<)! | %19
w: hebt sich, er|schwingt sich in|Won- ne.|Du|nimmst mich von|hier, ich|sin- ge mit|
!mf! f2 z2 F2 | F3 F F2 | A3 B2 c | c2 F2 z2 | z6 | z4!p! E2 |!<(! E3 C E2!<)! | !^!A6 | %27
w: dir, wir|stei- gen durch|Wol- ken zur|Son- ne.||wir|stei- gen durch|Wol-|
 E2 z2!mp! E2 |!<(! (A6 | c4 c2 | e6)!<)! | f4 f2 |!f! g6- | g6- | b6- |!>(! b6!>)! | B2 z4 | z6 | %38
w: ken wir|stei-|gen durch|Wol-|ken zur|Son-||||ne.||
 z6 | z6 | z6 |[Q:1/4=116] z6 |[Q:1/4=110] z6 |[Q:1/4=102] z4!p! E2 || %44
w: |||||O|
[K:C]"^Etwas weniger bewegt."[Q:1/4=116]!<(! E3 E E2!<)! | c4 c2 |!p!!<(! B3 B B2!<)! | e4 e2 | %48
w: Ler- che! du|neigst dich|nie- der, du|schweigst, du|
!p!!<(! B3 B B2 | f3 f f2!<)! |!>(! e2 B2!>)! z2 | z4!mp! E2 |[Q:1/4=114]!<(! E3 E E2 | %53
w: sinkst in die|blü- hen- den|Au- en.|Ich|schwei- ge zu-|
[Q:1/4=112] c4 c2 |[Q:1/4=110] c3 c c2!<)! |"^Modern spelling:\nTal\n"!f![Q:1/4=108]!<(! (c6!<)! | %56
w: mal und|sin- ke zu|Tal,|
[Q:1/4=112] =E) z z2 z2 |[Q:1/4=116] z2!f! A2 c2 | ^D6- | D2!mp! !tenuto!.E2 A2 | !>!^D6- | D6 | %62
w: ach!|Tief in|Mo-|* der und|Grau-||
 E2 z4 | z6 | z6 | z6 | z6 |[Q:1/4=114] z6 | z6 |[Q:1/4=108] z6 |[Q:1/4=80] z6 |] %71
w: en.|||||||||
V:2
 x6 | x6 | x6 | x6 | x6 | x6 | x6 | x6 | x6 | x6 | x6 | x6 | x6 | x6 | x6 | x6 | x6 | x6 | x6 | %19
 x6 | x6 | x6 | x6 | x6 | x6 | x6 | x6 | x6 | x6 | x6 | x6 | x6 | x3!<(! x3 | x3!<)! x3 | g6 | f6 | %36
 x6 | x6 | x6 | x6 | x6 | x6 | x6 | x6 ||[K:C] x6 | x6 | x6 | x6 | x6 | x6 | x6 | x6 | x6 | x6 | %54
 x6 | x2!>(! x4!>)! | x6 | x2 A,2 C2 | x6 | x4 A,2 | x6 | x6 | x6 | x6 | x6 | x6 | x6 | x6 | x6 | %69
 x6 | x6 |] %71
V:3
"_zart"!mf! (!>![ce]!tenuto!.c')!mp! ([ce]f!<(![ce]f | [ce]f[ce]f!<)! [ce]f | %2
 [ce]f!>(![ce]f [ce]f | [ce]f[ce]f [ce]!>)!!mp!f) |!mf! (!>![ce]!tenuto!.c')!mp!!<(! ([ce]f[ce]f | %5
 [ce]f[ce]f [ce]f!<)! |!>(! [ce]f[ce]f [ce]f | [ce]f[ce]f [ce]f)!>)! | %8
!mf! ([ce]!tenuto!.c')!mp! ([ce]f[ce]f |!mf! ([ce]!tenuto!.c')!mp! [ce]f[ce]f) | %10
!mf! (([de]!tenuto!.b)!mp! ([de]f[de]f) |!mf! ([de]!tenuto!.b)!mp! ([de]f[de]f)) | %12
!mf! (([de]!tenuto!.b)!mp! ([de]f[de]f) |!mf! ([de]!tenuto!.b)!mp! ([de]f[de]f)) | %14
!mf! (([de]b)!mp!!<(! [de]f[de]!<)!f |!mf! [de]!>(!f[de]f [de]!>)!!mp!f) | %16
!mf! ([ce]!<(!c')!mp! ([ce]f[ce]f) |!mf! ([Bc]b)!<)!!mp! ([Bc]^ece) | %18
!mf!"_cresc." ([c=e]c')!mp! ([ce]f[ce]f) |!mf! ([ce]c')!mp! ([ce]f[ce]f) | %20
!mf! ([^df]c')!mp! ([df]g[df]g) |!mf! ([^df]c')!mp! ([df]g[df]g) | %22
!mf! ([^df]!>(!!tenuto!.c') ([df]g[df]g | [^df]g [df]g[df]!>)!!mp!g) | %24
!mf! (!^![ce]!tenuto!.a)!p! ([ce]f!<(![ce]f | [ce]f[ce]f [ce]f)!<)! | %26
!mf! ([ce]!tenuto!.a)!p! ([ce]f[ce]f | [ce]f[ce]f"_cresc." [ce]f) | ([ce]a) ([ce]f[ce]f) | %29
 ([ce]a) ([ce]f[ce]f) | ([ce]a) ([ce]f[ce]f) | ([ce]a) ([ce]f[ce]f) |!ff! ([^cg]b[cg]b [cg]b | %33
!>(! [cg]b[cg]b [cg]b) | ([^dg]b [dg]b[dg]b | [^df]b [df]b[df]b)!>)! |!mf! ([=db]"_dim."f dfdf | %37
!mp! df"_dim."df df | d=fdf df | dede de) |!pp! (D=FDF DF |"_rit." D=FDF DF) | (DEDE DE | %43
 DEDE DE) ||[K:C]!p!!<(! ([CE]!tenuto!.A [CE]F[CE]F | [CE]!tenuto!.A [CE]F[CE]F) | %46
 ([DE]!tenuto!.B [DE]F[DE]F | [DE]!tenuto!.B [DE]F[DE]F) | ([DE]!tenuto!.B [DE]F[DE]F | %49
 [DE]!tenuto!.B [DE]F[DE]F)!<)! |!mp! ([DE]!tenuto!.B!<(! [DE]F[DE]F | [DE]F [DE]F[DE]F) | %52
 ([CE]!tenuto!.[Ac]"_rit." CECE | C!tenuto!.[Ac] CECE) | (C!tenuto!.[Ac] CECE!<)! | %55
!ff! C!tenuto!.[Ac]!mf!!>(! C_ECE) | ([A,C=E]A [A,CE]F[A,CE]F | [A,CE]F [A,CE]F[A,CE]!>)!!mp!F) | %58
!f!!>(! (!>!EF EFEF | EF EFE!>)!!p!F) |!mf!!>(! (EFEF EF | EFEF EF)!>)! |!pp! (EFEF EF | EFEF EF) | %64
[K:bass] (E,A,E,A, E,A, | E,A,E,A, E,A,) |!<(! [C,A,]6-!<)! | [C,A,]6 |!>(! [C,A,]6-!>)! | %69
!>(! [C,A,-]6!>)! |!pp! A,6 |] %71
V:4
 (!>![A,A]!tenuto!.E) (AGAG | AGAG AG | AGAG AG | AGAG AG) | (!>![A,A]!tenuto!.E) (AGAG | AGAG AG | %6
 AGAG AG | AGAG AG) | (([A,A]!tenuto!.E) (AGAG) | (A!tenuto!.E) (AGAG)) | %10
 (([A,B]!tenuto!.E) (BGBG) | B!tenuto!.E BGBG) | (([A,B]!tenuto!.E) (BGBG) | B!tenuto!.E BGBG) | %14
 (([A,B]E) BGBG | BGBG BG) | [A,A]E (AGAG) |[K:bass] (^EC) (ECEC) | %18
"_Bars 19 and 21 in the IMSLP score have different beaming from the rest of the line. \nThis looks like an error to me, so I have changed it to make the beaming uniform.\n" ([F,^A]C) (AFAF) | %19
 (^AC) (AFAF) | (!arpeggio![B,,=A]^D) (AFAF) | (A^D) (AFAF) | ([B,,A]!tenuto!.^D (AF)AF | %23
 AF AFAF) | (!^![B,A]!tenuto!.C) (AEAE | AEAE AE) | ([B,A]!tenuto!.C) (AEAE | AEAE AE) | %28
 ([B,A]C) (AEAE) | ([B,A]C) (AEAE) | ([B,A]C) (AEAE) | ([B,A]C) (AEAE) |!ped!{/[B,,B,]} (^ABAB AB | %33
 ^ABAB AB) | ([B,=A]B ABAB | AB ABAB)!ped-up! |{/E,} (GB GBGB | GBGB GB | GBGB GB | GBGB GB) | %40
 (G,B,G,B, G,B, | G,B,G,B, G,B,) | (G,B,G,B, G,B, | G,B,G,B, G,B,) || %44
[K:C] ([A,,A,]!tenuto!.E, A,^G,A,G, | A,!tenuto!.E, A,^G,A,G,) | ([A,,B,]!tenuto!.E, B,^G,B,G, | %47
 B,!tenuto!.E, B,^G,B,G,) | ([A,,B,]!tenuto!.E, B,^G,B,G, | B,!tenuto!.E, B,^G,B,G,) | %50
 ([A,,B,]!tenuto!.E, B,^G,B,G, | B,^G, B,G,B,G,) | ([A,,A,]!tenuto!.E, A,^G,A,G, | %53
 [G,,A,]!tenuto!.E, A,E,A,E,) | ([^F,,A,]!tenuto!.E, A,E,A,E, | [=F,,A,]!tenuto!._E, A,E,A,E,) | %56
 ([=E,,=E,]^D, E,D,E,D, | E,^D, E,D,E,D,) | (!>![E,,E,]^D, E,D,E,D, | E,^D, E,D,E,D,) | %60
 (!^!E,^D,E,D, E,D, | E,^D,E,D, E,D,) | (E,^D,E,D, E,D, | E,^D,E,D, E,D,) | (C,B,,C,B,, C,B,, | %65
 C,B,,C,B,, C,B,,) | (A,,^G,,A,,G,, A,,G,, | A,,^G,,A,,G,, A,,G,,) | (A,,^G,,A,,G,, A,,G,, | %69
 A,,^G,,A,,G,, A,,G,,) | [A,,,A,,]6 |] %71
V:5
 x6 | x6 | x6 | x6 | x6 | x6 | x6 | x6 | x6 | x6 | x6 | x6 | x6 | x6 | x6 | x6 | x6 | %17
[K:bass] =G,6 | x6 | x6 | x6 | x6 | x6 | x6 | x6 | x6 | x6 | x6 | x6 | x6 | x6 | x6 | x6 | x6 | %34
 x6 | x6 | x6 | x6 | x6 | x6 | x6 | x6 | x6 | x6 ||[K:C] x6 | x6 | x6 | x6 | x6 | x6 | x6 | x6 | %52
 x6 | x6 | x6 | x6 | x6 | x6 | x6 | x6 | A,,,6- | A,,,6 | A,,6- | A,,6 | A,,6- | A,,6 | A,,,6- | %67
 A,,,6 | A,,,6- | A,,,6 | x6 |] %71
V:6
 x6 | x6 | x6 | x6 | x6 | x6 | x6 | x6 | x6 | x6 | x6 | x6 | x6 | x6 | x6 | x6 | x6 | x6 | x6 | %19
 x6 | x6 | x6 | x6 | x6 | x6 | x6 | x6 | x6 | x6 | x6 | x6 | x6 | x6 | x6 | x6 | x6 | x6 | x6 | %38
 x6 | x6 | x6 | x6 | x6 | x6 ||[K:C] x6 | x6 | x6 | x6 | x6 | x6 | x6 | x6 | x6 | x6 | x6 | x6 | %56
 x6 | x6 | [A,C]6- | [A,C]6 | [A,C]6- | [A,C]6 | x6 | x6 |[K:bass] x6 | x6 | (E,F,E,F, E,F, | %67
 E,F,E,F, E,F,) | (E,F,E,F, E,F, | E,F,E,F, E,F,) | [C,E,]6 |] %71

